!!!SOCIAL_FUNCTION:	dance songs
!!!PDT:	1913
!!!OTL: No_164_Woman's_Dance_Song.krn
!!!REG: Great_Lakes
!!!LANG: Non-Tone
!!!LING_GROUP: Algonquin
**kern	**kern
*staff2	*staff1
=1-	=1-
*clefF4	*clefF4
*k[f#c#g#d#a#]	*k[f#c#g#d#a#]
*M3/4	*M3/4
12GG#^/	2d#\
12r	.
12GG#/	.
12GG#^/	.
12r	.
12GG#/	.
12GG#^/	4c#\
12r	.
12GG#/	.
=2	=2
2.r	2d#\
.	4c#\
=3	=3
2.r	4B\
.	4.G#\
.	8G#\
=4||	=4||
*M2/4	*M2/4
2r	4G#\
.	4D#\
=5||	=5||
*M3/4	*M3/4
2.r	8G#\L
.	8G#\J
.	8.G#\L
.	16G#\Jk
.	4G#\
=6||	=6||
*M2/4	*M2/4
2r	4d#\
.	4c#\
=7	=7
2r	4d#\
.	4c#\
=8	=8
2r	4B\
.	8G#\L
.	8G#\J
=9	=9
2r	8.G#\L
.	16G#\Jk
.	4G#\
=10	=10
2r	4B\
.	4G#\
=11	=11
2r	4F#\
.	8D#\L
.	8D#\J
=12	=12
2r	8.D#\L
.	16D#\Jk
.	4D#\
=13	=13
2r	4G#\
.	4F#\
=14	=14
2r	4G#\
.	4F#\
=15	=15
2r	4D#\
.	4C#/
=16	=16
2r	4D#\
.	4C#/
=17	=17
2r	4BB/
.	8C#/L
.	8BB/J
=18||	=18||
*M3/4	*M3/4
2.r	4GG#/
.	4.GG#/
.	8GG#/
=19	=19
2.r	2.GG#/
==	==
*-	*-
